svg/icon/ndz.svg

<svg height="32" viewBox="0 0 32 32" width="32" xmlns="http://www.w3.org/2000/svg" xmlns:xlink="http://www.w3.org/1999/xlink"><defs><linearGradient id="a" x1="50%" x2="50%" y1="0%" y2="100%"><stop offset="0" stop-color="#fff" stop-opacity=".5"/><stop offset="1" stop-opacity=".5"/></linearGradient><circle id="b" cx="16" cy="15" r="15"/><filter id="c" height="111.7%" width="111.7%" x="-5.8%" y="-4.2%"><feOffset dy=".5" in="SourceAlpha" result="shadowOffsetOuter1"/><feGaussianBlur in="shadowOffsetOuter1" result="shadowBlurOuter1" stdDeviation=".5"/><feComposite in="shadowBlurOuter1" in2="SourceAlpha" operator="out" result="shadowBlurOuter1"/><feColorMatrix in="shadowBlurOuter1" values="0 0 0 0 0   0 0 0 0 0   0 0 0 0 0  0 0 0 0.199473505 0"/></filter><path id="d" d="m18.5862069 16.375694c-.08718.0270416-.171688.0601336-.2530304.0987838l-3.6757152-3.8215945c.1630209-.2809151.2563318-.6071127.2563318-.9550505 0-.8755544-.5908747-1.6134435-1.3965517-1.838524v-2.67344183l-.9837488-.54953843 2.2720565-1.31557944c.7385948-.42766547 1.650307-.42766547 2.3889018 0l4.5185965 2.61638412-1.7859971 1.03294025c-.2360992-.10392689-.4972324-.16163696-.7718779-.16163696-1.0569587 0-1.9137931.85471769-1.9137931 1.90906539 0 .8567081.5657114 1.5816137 1.3448276 1.8232804zm1.137931 0v-3.8349117c.7791163-.2416667 1.3448276-.9665723 1.3448276-1.8232804 0-.3456043-.0920635-.6697591-.2530613-.94939251l2.0308313-1.17454141.9684051.56073154c.7334574.42469079 1.1848594 1.20671228 1.1848594 2.05268358v7.5860338c0 .8459713-.451402 1.6279928-1.1848594 2.0526836l-4.0910027 2.3687962v-3.1922418c.7791163-.2416668 1.3448276-.9665723 1.3448276-1.8232804s-.5657113-1.5816137-1.3448276-1.8232805zm-2.2269716.8691694c-.162684.2807028-.255787.6065611-.255787.9541111 0 .8567081.5657114 1.5816136 1.3448276 1.8232804v3.8511333l-1.391756.8058627c-.7385948.4276655-1.650307.4276655-2.3889018 0l-4.86406816-2.8164212 1.82761246-1.428047c.3327483.2790868.7621461.4472026 1.2309066.4472026 1.0569587 0 1.9137931-.8547177 1.9137931-1.9090654 0-.8755544-.5908747-1.6134435-1.3965517-1.838524v-3.5980391c.1051943-.0293879.2067268-.067518.3037603-.1135552zm-5.117856-.0783655c-.7523048.2571565-1.2931034.9687901-1.2931034 1.806422 0 .173525.0232088.3416427.0666989.5014327l-2.27133638 1.774761-.69670999-.4034131c-.73345739-.4246908-1.18485943-1.2067123-1.18485943-2.0526836v-7.5860338c0-.8459713.45140204-1.62799279 1.18485943-2.05268358l3.20505057-1.85580709.9894003.55269549v2.04022287c-.7523048.25715651-1.2931034.96879011-1.2931034 1.80642201s.5407986 1.5492655 1.2931034 1.806422zm.6206897-4.6431233c-.4570632 0-.8275862-.3696077-.8275862-.8255418s.370523-.8255418.8275862-.8255418.8275862.3696077.8275862.8255418-.370523.8255418-.8275862.8255418zm0 7.2750871c-.4570632 0-.8275862-.3696076-.8275862-.8255418 0-.4559341.370523-.8255418.8275862-.8255418s.8275862.3696077.8275862.8255418c0 .4559342-.370523.8255418-.8275862.8255418zm6.1551724-8.255418c-.4570632 0-.8275862-.3696076-.8275862-.8255418 0-.4559341.370523-.82554178.8275862-.82554178.4570633 0 .8275862.36960768.8275862.82554178 0 .4559342-.3705229.8255418-.8275862.8255418zm0 7.4814726c-.4570632 0-.8275862-.3696077-.8275862-.8255418 0-.4559342.370523-.8255418.8275862-.8255418.4570633 0 .8275862.3696076.8275862.8255418 0 .4559341-.3705229.8255418-.8275862.8255418z"/><filter id="e" height="117.5%" width="119.4%" x="-9.7%" y="-6.2%"><feOffset dy=".5" in="SourceAlpha" result="shadowOffsetOuter1"/><feGaussianBlur in="shadowOffsetOuter1" result="shadowBlurOuter1" stdDeviation=".5"/><feColorMatrix in="shadowBlurOuter1" values="0 0 0 0 0   0 0 0 0 0   0 0 0 0 0  0 0 0 0.204257246 0"/></filter></defs><g fill="none" fill-rule="evenodd"><g fill-rule="nonzero"><use fill="#000" filter="url(#c)" xlink:href="#b"/><use fill="#622fba" fill-rule="evenodd" xlink:href="#b"/><use fill="url(#a)" fill-rule="evenodd" xlink:href="#b"/><circle cx="16" cy="15" r="14.5" stroke="#000" stroke-opacity=".097"/></g><use fill="#000" filter="url(#e)" xlink:href="#d"/><use fill="#fff" xlink:href="#d"/></g></svg>

<svg xmlns="http://www.w3.org/2000/svg" xmlns:xlink="http://www.w3.org/1999/xlink" width="32" height="32" viewBox="0 0 32 32">
  <defs>
    <linearGradient id="ndz-c" x1="50%" x2="50%" y1="0%" y2="100%">
      <stop offset="0%" stop-color="#FFF" stop-opacity=".5"/>
      <stop offset="100%" stop-opacity=".5"/>
    </linearGradient>
    <circle id="ndz-b" cx="16" cy="15" r="15"/>
    <filter id="ndz-a" width="111.7%" height="111.7%" x="-5.8%" y="-4.2%" filterUnits="objectBoundingBox">
      <feOffset dy=".5" in="SourceAlpha" result="shadowOffsetOuter1"/>
      <feGaussianBlur in="shadowOffsetOuter1" result="shadowBlurOuter1" stdDeviation=".5"/>
      <feComposite in="shadowBlurOuter1" in2="SourceAlpha" operator="out" result="shadowBlurOuter1"/>
      <feColorMatrix in="shadowBlurOuter1" values="0 0 0 0 0   0 0 0 0 0   0 0 0 0 0  0 0 0 0.199473505 0"/>
    </filter>
    <path id="ndz-e" d="M18.5862069,16.375694 C18.4990269,16.4027356 18.4145189,16.4358276 18.3331765,16.4744778 L14.6574613,12.6528833 C14.8204822,12.3719682 14.9137931,12.0457706 14.9137931,11.6978328 C14.9137931,10.8222784 14.3229184,10.0843893 13.5172414,9.8593088 L13.5172414,7.18586697 L12.5334926,6.63632854 L14.8055491,5.3207491 C15.5441439,4.89308363 16.4558561,4.89308363 17.1944509,5.3207491 L21.7130474,7.93713322 L19.9270503,8.97007347 C19.6909511,8.86614658 19.4298179,8.80843651 19.1551724,8.80843651 C18.0982137,8.80843651 17.2413793,9.6631542 17.2413793,10.7175019 C17.2413793,11.57421 17.8070907,12.2991156 18.5862069,12.5407823 L18.5862069,16.375694 Z M19.7241379,16.375694 L19.7241379,12.5407823 C20.5032542,12.2991156 21.0689655,11.57421 21.0689655,10.7175019 C21.0689655,10.3718976 20.976902,10.0477428 20.8159042,9.76810939 L22.8467355,8.59356798 L23.8151406,9.15429952 C24.548598,9.57899031 25,10.3610118 25,11.2069831 L25,18.7930169 C25,19.6389882 24.548598,20.4210097 23.8151406,20.8457005 L19.7241379,23.2144967 L19.7241379,20.0222549 C20.5032542,19.7805881 21.0689655,19.0556826 21.0689655,18.1989745 C21.0689655,17.3422664 20.5032542,16.6173608 19.7241379,16.375694 Z M17.4971663,17.2448634 C17.3344823,17.5255662 17.2413793,17.8514245 17.2413793,18.1989745 C17.2413793,19.0556826 17.8070907,19.7805881 18.5862069,20.0222549 L18.5862069,23.8733882 L17.1944509,24.6792509 C16.4558561,25.1069164 15.5441439,25.1069164 14.8055491,24.6792509 L9.94148094,21.8628297 L11.7690934,20.4347827 C12.1018417,20.7138695 12.5312395,20.8819853 13,20.8819853 C14.0569587,20.8819853 14.9137931,20.0272676 14.9137931,18.9729199 C14.9137931,18.0973655 14.3229184,17.3594764 13.5172414,17.1343959 L13.5172414,13.5363568 C13.6224357,13.5069689 13.7239682,13.4688388 13.8210017,13.4228016 L17.4971663,17.2448634 Z M12.3793103,17.1664979 C11.6270055,17.4236544 11.0862069,18.135288 11.0862069,18.9729199 C11.0862069,19.1464449 11.1094157,19.3145626 11.1529058,19.4743526 L8.88156942,21.2491136 L8.18485943,20.8457005 C7.45140204,20.4210097 7,19.6389882 7,18.7930169 L7,11.2069831 C7,10.3610118 7.45140204,9.57899031 8.18485943,9.15429952 L11.38991,7.29849243 L12.3793103,7.85118792 L12.3793103,9.89141079 C11.6270055,10.1485673 11.0862069,10.8602009 11.0862069,11.6978328 C11.0862069,12.5354647 11.6270055,13.2470983 12.3793103,13.5042548 L12.3793103,17.1664979 Z M13,12.5233746 C12.5429368,12.5233746 12.1724138,12.1537669 12.1724138,11.6978328 C12.1724138,11.2418987 12.5429368,10.872291 13,10.872291 C13.4570632,10.872291 13.8275862,11.2418987 13.8275862,11.6978328 C13.8275862,12.1537669 13.4570632,12.5233746 13,12.5233746 Z M13,19.7984617 C12.5429368,19.7984617 12.1724138,19.4288541 12.1724138,18.9729199 C12.1724138,18.5169858 12.5429368,18.1473781 13,18.1473781 C13.4570632,18.1473781 13.8275862,18.5169858 13.8275862,18.9729199 C13.8275862,19.4288541 13.4570632,19.7984617 13,19.7984617 Z M19.1551724,11.5430437 C18.6981092,11.5430437 18.3275862,11.1734361 18.3275862,10.7175019 C18.3275862,10.2615678 18.6981092,9.89196012 19.1551724,9.89196012 C19.6122357,9.89196012 19.9827586,10.2615678 19.9827586,10.7175019 C19.9827586,11.1734361 19.6122357,11.5430437 19.1551724,11.5430437 Z M19.1551724,19.0245163 C18.6981092,19.0245163 18.3275862,18.6549086 18.3275862,18.1989745 C18.3275862,17.7430403 18.6981092,17.3734327 19.1551724,17.3734327 C19.6122357,17.3734327 19.9827586,17.7430403 19.9827586,18.1989745 C19.9827586,18.6549086 19.6122357,19.0245163 19.1551724,19.0245163 Z"/>
    <filter id="ndz-d" width="119.4%" height="117.5%" x="-9.7%" y="-6.2%" filterUnits="objectBoundingBox">
      <feOffset dy=".5" in="SourceAlpha" result="shadowOffsetOuter1"/>
      <feGaussianBlur in="shadowOffsetOuter1" result="shadowBlurOuter1" stdDeviation=".5"/>
      <feColorMatrix in="shadowBlurOuter1" values="0 0 0 0 0   0 0 0 0 0   0 0 0 0 0  0 0 0 0.204257246 0"/>
    </filter>
  </defs>
  <g fill="none" fill-rule="evenodd">
    <g fill-rule="nonzero">
      <use fill="#000" filter="url(#ndz-a)" xlink:href="#ndz-b"/>
      <use fill="#622FBA" fill-rule="evenodd" xlink:href="#ndz-b"/>
      <use fill="url(#ndz-c)" fill-rule="evenodd" style="mix-blend-mode:soft-light" xlink:href="#ndz-b"/>
      <circle cx="16" cy="15" r="14.5" stroke="#000" stroke-opacity=".097"/>
    </g>
    <use fill="#000" filter="url(#ndz-d)" xlink:href="#ndz-e"/>
    <use fill="#FFF" xlink:href="#ndz-e"/>
  </g>
</svg>
